frontend/public/svg/misc/hot-air-balloon.svg

<svg width="99" height="156" viewBox="0 0 99 156" fill="none" xmlns="http://www.w3.org/2000/svg">
<path d="M64.7916 120.208C66.9188 120.208 68.4487 120.114 69.9629 120.229C72.5922 120.426 73.9206 121.681 74.2173 124.324C74.3521 125.956 74.3912 127.596 74.3341 129.233C74.2965 135.345 74.2439 141.457 74.1766 147.568C74.1208 152.633 72.1938 154.087 67.0802 154.145C57.7963 154.249 48.5177 154.763 39.2351 155.072C36.0689 155.177 32.8962 155.294 29.7326 155.199C26.6321 155.107 25.0024 153.513 25.0687 150.473C25.2341 142.832 25.4225 135.185 25.8963 127.558C26.216 122.409 27.0528 121.848 32.3285 121.394C32.6981 121.308 33.0575 121.183 33.4009 121.022C32.3383 116.667 31.2849 112.351 30.2124 107.954C29.6714 107.81 29.1128 107.744 28.5532 107.757C22.8063 108.811 19.4268 105.46 16.4989 101.304C10.8111 93.2315 7.80767 83.9713 4.89222 74.6992C1.28827 63.2382 -0.461536 51.5003 0.59648 39.4748C1.21595 32.1555 3.43402 25.0612 7.09422 18.6925C12.1021 9.97833 19.7248 4.60557 29.4563 2.35827C42.2031 -0.584751 55.0423 -0.960153 67.772 2.29922C79.214 5.22911 87.5934 12.1403 92.5967 22.9312C100.805 40.6437 100.745 58.657 94.1771 76.7726C92.3648 82.0337 90.1012 87.1283 87.4116 91.9996C84.7863 96.5677 81.3772 100.737 77.9236 104.746C76.903 105.932 74.5585 106.471 72.8304 106.453C69.4352 106.415 68.0182 107.886 67.4176 111.073C66.8591 114.046 65.763 116.917 64.7916 120.208ZM54.7588 6.46495C56.7042 11.755 59.0073 16.7189 60.3613 21.9302C65.9198 43.3268 65.8043 65.1429 64.6203 87.0042C64.3925 91.2048 63.9758 95.3968 63.6062 100.101C67.2673 99.7332 70.6356 99.8645 73.6344 98.8754C74.9314 98.4474 75.4636 95.7047 76.3477 94.0185C76.4482 93.8262 76.5958 93.6575 76.6943 93.4646C79.8598 87.2622 83.4591 81.237 86.0897 74.8147C91.112 62.5556 92.9485 49.7984 89.7698 36.6933C88.1218 29.8969 86.1659 23.2055 81.3438 17.7625C74.233 9.73089 64.869 7.21192 54.7588 6.46238V6.46495ZM55.1651 100.256C55.3854 99.5223 55.5651 98.7773 55.7033 98.0241C56.4745 89.8763 57.4537 81.7397 57.9348 73.5742C58.8654 58.5101 58.0886 43.389 55.6193 28.4995C54.4201 21.3671 52.6841 14.408 48.8446 8.11893C47.8548 6.49778 46.6196 6.32389 45.0115 6.34293C43.3825 6.3613 42.3205 6.95393 41.8027 8.54292C40.7893 11.6448 39.4773 14.6705 38.7179 17.8308C34.1705 36.5638 33.1745 55.9831 35.7814 75.0831C36.8231 82.7478 38.6378 90.3101 40.1277 97.9112C40.3561 99.0742 40.5268 100.3 42.2503 100.274C46.5008 100.215 50.7525 100.254 55.1651 100.254V100.256ZM36.8979 7.51972C25.1895 9.03914 16.6334 14.6351 12.0082 25.6708C7.83851 35.6202 7.10604 45.9378 8.55458 56.5245C10.516 71.4821 15.0398 85.99 21.9275 99.4116C22.183 99.8465 22.5332 100.218 22.9522 100.499C23.3711 100.78 23.848 100.963 24.3474 101.035C27.2714 100.998 30.1888 100.603 33.3714 100.32C26.7712 69.1085 26.1366 38.2731 36.8979 7.51844V7.51972ZM67.5745 126.835H30.8281C31.1759 134.335 31.5067 141.476 31.85 148.878L66.1345 147.631C66.6326 140.437 67.0986 133.707 67.5745 126.834V126.835ZM40.1002 120.797C45.8215 120.797 51.2448 120.822 56.6668 120.758C56.9774 120.741 57.28 120.654 57.5518 120.503C57.8235 120.351 58.0571 120.14 58.2348 119.885C60.001 115.87 61.6549 111.807 63.347 107.742H35.261C36.9051 112.255 38.3865 116.332 39.8816 120.404C39.9892 120.695 40.1927 120.953 40.1002 120.794V120.797Z" fill="black"/>
</svg>

<svg xmlns="http://www.w3.org/2000/svg" width="99" height="156" fill="none" viewBox="0 0 99 156"><path fill="#000" d="M64.792 120.208c2.127 0 3.657-.094 5.17.021 2.63.197 3.959 1.452 4.255 4.095.135 1.632.174 3.272.117 4.909q-.057 9.168-.157 18.335c-.056 5.065-1.983 6.519-7.097 6.577-9.284.104-18.562.618-27.845.927-3.166.105-6.339.222-9.502.127-3.1-.092-4.73-1.686-4.664-4.726.165-7.641.354-15.288.827-22.915.32-5.149 1.157-5.71 6.432-6.164a5.4 5.4 0 0 0 1.073-.372l-3.189-13.068a6 6 0 0 0-1.659-.197c-5.747 1.054-9.126-2.297-12.054-6.453-5.688-8.073-8.691-17.333-11.607-26.605C1.288 63.24-.462 51.5.596 39.475a50.2 50.2 0 0 1 6.498-20.783c5.008-8.714 12.63-14.086 22.362-16.334C42.203-.585 55.042-.96 67.772 2.3c11.442 2.93 19.821 9.841 24.825 20.632 8.208 17.713 8.148 35.726 1.58 53.842A96.6 96.6 0 0 1 87.412 92c-2.626 4.568-6.035 8.737-9.488 12.746-1.021 1.186-3.366 1.725-5.094 1.707-3.395-.038-4.812 1.433-5.412 4.62-.559 2.973-1.655 5.844-2.626 9.135M54.759 6.465c1.945 5.29 4.248 10.254 5.602 15.465 5.559 21.397 5.443 43.213 4.26 65.074-.228 4.2-.645 8.393-1.015 13.097 3.661-.368 7.03-.236 10.028-1.226 1.297-.428 1.83-3.17 2.714-4.856.1-.193.248-.362.346-.554 3.166-6.203 6.765-12.228 9.396-18.65 5.022-12.26 6.858-25.017 3.68-38.122-1.648-6.796-3.604-13.487-8.426-18.93-7.111-8.032-16.475-10.551-26.585-11.3zm.406 93.791q.33-1.102.538-2.232c.771-8.148 1.75-16.284 2.232-24.45.93-15.064.154-30.185-2.316-45.074-1.199-7.133-2.935-14.092-6.774-20.381-.99-1.621-2.225-1.795-3.834-1.776-1.629.018-2.69.61-3.208 2.2-1.014 3.102-2.326 6.128-3.085 9.288a154.3 154.3 0 0 0-2.937 57.252c1.042 7.665 2.857 15.227 4.347 22.828.228 1.163.399 2.389 2.122 2.363 4.25-.059 8.502-.02 12.915-.02zM36.898 7.52c-11.709 1.52-20.265 7.115-24.89 18.15-4.17 9.95-4.902 20.268-3.453 30.855a131.3 131.3 0 0 0 13.372 42.887 3.36 3.36 0 0 0 2.42 1.623c2.924-.037 5.842-.432 9.024-.715-6.6-31.211-7.234-62.047 3.527-92.802zm30.676 119.315H30.829l1.022 22.043 34.285-1.247zM40.1 120.797c5.721 0 11.145.025 16.567-.039a2.05 2.05 0 0 0 1.568-.873c1.766-4.015 3.42-8.078 5.112-12.143H35.261c1.644 4.513 3.125 8.59 4.62 12.662.108.291.312.549.22.39z"/></svg>
